X:1
T:068 - Bem-aventurados
T:Letra: Fanny Jane Crosby (1820-1915)
T:Trad.: William Edwin Entzminger (1859-1930)
T:Música: Ira David Sankey (1840-1908)
L:1/8
M:4/4
Q:1/4=100
K:Ab
V:1
"Ab"E2 A2 A3 B | "Eb7"(AG) (FG) "Ab"A2 E2 | "Eb"E2 B2 B3 c | ("Ab/Eb"BA) (GA) "Eb"B3z | "Ab"E2 A2 A3 B | ("Eb7"AG) (FG) "Fm"A2 B2 | "Ab"c2 "Ab7"e2 ("Db"ed) (cB) | "Ab/Eb"A2 "Eb7"G2 "Ab"A3z || "Eb"B2 B2 B3 c | ("Eb7"dc) (Bc) d2 B2 | "Ab"c2 c2 c3 e | ("Bb"e=d) ("Bb7"cd) "Eb"e3z | "Ab"E2 A2 A3 B | ("Eb7"AG) (FG) "Fm"A2 B2 | "Ab"c2 "Ab7"e2 ("Db"ed) (cB) | "Ab/Eb"A2 "Eb7"G2 "Ab"A3z |]
w: 1.~Gló-ria se-ja da_daa_Cris-to, Fi-lhoe-ter-no do_ bom_ Deus, Pois re-miu-nos pe_la_ gra-ça E nos fez_ her_dei-ros seus.     Sal-vos pe-la fé_ em_ Cris-to,    Sal-vos, sim, no san_gue_ seu;    Ten-do ne-le se_gu_ran-ça,            Ca-mi-nhe_mos_ pa-rao céu.
w: 2.~Já se foi o tem_po_ tris-te Em que pro-cu-ra_mos_ luz! Eis que lon-ge de_ nós_ fi-ca, Cris-toa-go_ra_ nos con-duz.
w: 3.~Sim, guar-da-dos nós_ por_ E-le, Vi-ve-re-mos em_ a_mor; Bem-a-ven-tu-ra_dos_ so-mos; En-to-e_mos_lhe lou-vor.           				                    
W: 
W: 
W: 1. Glória seja dada a Cristo,
W: Filho eterno do bom Deus,
W: Pois remiu-nos pela graça
W: E nos fez herdeiros seus.
W: 
W:    (Estribilho)
W:    Salvos pela fé em Cristo,
W:    Salvos, sim, no sangue seu;
W:    Tendo nele segurança,        
W:    Caminhemos para o céu.
W: 
W: 
W: 
W: 2. Já se foi o tempo triste
W: Em que procuramos luz!
W: Eis que longe de nós fica,
W: Cristo agora nos conduz.
W: 
W: 3. Sim, guardados nós por Ele,
W: Viveremos em amor;
W: Bem-aventurados somos;
W: Entoemos-lhe louvor.
W: 
W:         
W: 				         
W:           





